X:186
T:Poverty no sin (Fone)
%%VWML:SBG-1-2-501-0
F:http://www.vwml.org/record/SBG/1/2/501
Z:Original Sibelius transcriptions by M. & S. Graebe
M:4/4
I:linebreak $
K:C
V:1 treble nm="P1"
V:1
 G | E c G d | c e c3/2 c/ | g3/2 e/ c B/c/ | (e d) z d | d c/ B/A/B/d/ |$ g3 d | d c/A/ G B/A/ | %8
 G3 d | g3/2 e/ e c | c A A3/2 A/ | a g f e/d/ |$ (c B) z e/d/ | c A A G/F/ | F E E g/f/ | %15
 e3/2 d/ c A | A G G e |$ d a g f | e2 z e | d a g B | c |"^or" c | B/c/ d g | f e z"^&c." e | %24

